src/assets/images/cellphone.svg

<svg width="34" height="34" viewBox="0 0 34 34" fill="none"
    xmlns="http://www.w3.org/2000/svg">
    <path d="M31.5014 19.5767C30.9109 19.3438 30.6237 18.6774 30.8568 18.0869C32.7203 13.3955 31.3065 8.742 28.2727 5.71912C25.0928 2.55001 20.125 1.16863 15.309 3.42764C14.7348 3.69851 14.0522 3.44929 13.7813 2.87501C13.5104 2.30079 13.7543 1.61276 14.3338 1.34733C20.1142 -1.36676 26.0624 0.291007 29.8925 4.09934C33.533 7.71815 35.234 13.298 32.9912 18.9321C32.7582 19.5225 32.0865 19.8151 31.5014 19.5767Z" fill="#6BBAE2"/>
    <path d="M28.1047 16.2778C27.4005 16.2778 26.8641 15.6548 26.9617 14.9722C27.2867 12.6427 26.4362 10.5137 24.941 9.051C23.435 7.58833 21.268 6.80826 18.9765 7.19282C18.3535 7.29568 17.7576 6.87321 17.6546 6.25018C17.5463 5.62171 17.9688 5.02585 18.5918 4.92292C21.6635 4.40821 24.5564 5.45922 26.5662 7.42571C28.5544 9.37055 29.6704 12.2093 29.2369 15.2863C29.1557 15.866 28.6682 16.2777 28.1047 16.2778Z" fill="#6BBAE2"/>
    <path d="M29.7139 30.823L19.4209 20.5301L22.1295 17.8214C23.3263 16.6246 25.2667 16.6246 26.4635 17.8214L32.4226 23.7805C33.6193 24.9773 33.6193 26.9177 32.4226 28.1144L29.7139 30.823Z" fill="#C5DCFD"/>
    <path d="M17.5249 31.6357C11.9805 26.0912 7.94956 22.0603 2.35636 16.4671C-0.782929 13.3278 -0.787976 8.23501 2.35636 5.09074C3.24747 4.19957 3.89532 3.55177 4.7942 2.65283L15.0872 12.9458L13.462 14.571L19.4211 20.5301L21.0464 18.905L31.3393 29.1979C30.8208 29.7164 29.42 31.1172 28.9015 31.6357C25.7621 34.775 20.6693 34.78 17.5249 31.6357Z" fill="#B1C6E4"/>
    <path d="M19.4209 20.5304L16.4413 17.5508L9.94043 24.0516C12.3465 26.4577 14.7455 28.8566 17.5248 31.6359C20.6691 34.7803 25.762 34.7752 28.9011 31.6359C29.4196 31.1174 30.8205 29.7166 31.339 29.1981L21.0462 18.9053L19.4209 20.5304Z" fill="#9DB0CA"/>
    <path d="M13.462 14.5711L3.16895 4.2781L5.87759 1.56946C7.07436 0.372682 9.01475 0.372682 10.2115 1.56946L16.1706 7.52855C17.3674 8.72533 17.3674 10.6657 16.1706 11.8625L13.462 14.5711Z" fill="#DBE9FD"/>
    <path d="M28.1051 16.2772C27.4009 16.2772 26.8645 15.6542 26.9621 14.9716C27.2871 12.6422 26.4366 10.5131 24.9414 9.05045L26.5666 7.42529C28.5548 9.37013 29.6708 12.2089 29.2373 15.2859C29.1561 15.8655 28.6686 16.2772 28.1051 16.2772Z" fill="#60AED5"/>
    <path d="M31.5022 19.5765C30.9116 19.3436 30.6245 18.6772 30.8575 18.0867C32.7211 13.3953 31.3072 8.74178 28.2734 5.7189L29.8932 4.09912C33.5337 7.71793 35.2347 13.2978 32.9919 18.9319C32.759 19.5223 32.0872 19.8149 31.5022 19.5765Z" fill="#60AED5"/>
</svg>

<svg xmlns="http://www.w3.org/2000/svg" width="34" height="34" fill="none"><path fill="#6BBAE2" d="M31.501 19.577c-.59-.233-.877-.9-.644-1.49 1.863-4.691.45-9.345-2.584-12.368-3.18-3.169-8.148-4.55-12.964-2.291a1.15 1.15 0 0 1-1.528-.553 1.14 1.14 0 0 1 .553-1.528C20.114-1.367 26.062.291 29.892 4.1c3.641 3.62 5.342 9.199 3.1 14.833-.234.59-.905.883-1.49.645"/><path fill="#6BBAE2" d="M28.105 16.278a1.15 1.15 0 0 1-1.143-1.306 6.89 6.89 0 0 0-2.021-5.921 6.89 6.89 0 0 0-5.964-1.858 1.151 1.151 0 0 1-.385-2.27 9.17 9.17 0 0 1 7.974 2.503 9.14 9.14 0 0 1 2.67 7.86c-.08.58-.568.992-1.131.992"/><path fill="#C5DCFD" d="M29.714 30.823 19.42 20.53l2.709-2.709a3.065 3.065 0 0 1 4.334 0l5.959 5.96a3.065 3.065 0 0 1 0 4.333z"/><path fill="#B1C6E4" d="M17.525 31.636 2.356 16.467a8.044 8.044 0 0 1 0-11.376l2.438-2.438 10.293 10.293-1.625 1.625 5.96 5.96 1.624-1.626L31.34 29.198l-2.437 2.438a8.044 8.044 0 0 1-11.377 0"/><path fill="#9DB0CA" d="m19.42 20.53-2.979-2.98-6.5 6.502 7.584 7.584a8.044 8.044 0 0 0 11.376 0l2.438-2.438-10.293-10.293z"/><path fill="#DBE9FD" d="M13.462 14.571 3.169 4.278 5.878 1.57a3.065 3.065 0 0 1 4.333 0l5.96 5.96a3.065 3.065 0 0 1 0 4.334z"/><path fill="#60AED5" d="M28.105 16.277a1.15 1.15 0 0 1-1.143-1.305 6.89 6.89 0 0 0-2.02-5.922l1.625-1.625a9.14 9.14 0 0 1 2.67 7.86c-.08.58-.568.992-1.132.992m3.397 3.3c-.59-.233-.877-.9-.644-1.49 1.863-4.692.45-9.345-2.585-12.368l1.62-1.62c3.64 3.619 5.342 9.199 3.099 14.833-.233.59-.905.883-1.49.645"/></svg>
